X:25
T:Old Joe Clark
C:Traditional
R:Reel
M:4/4
L:1/4
K:Amix
|:"A"ef=g>f|edc2|ef=g/g/f|e3e|ef=gf|edc2|AcB"G"=G/G/|"A"A2A2:||
|:AA/A/AA|edc2|AA/A/Ac|"G"B3B|"A"AAAA|edc>c|Ac"G"BG|1"A"A2A2:|2"A"A3e|3"A"A4|]
